src/static/jamstack-webstarter.svg

<svg height="156" viewBox="0 0 156 156" width="156" xmlns="http://www.w3.org/2000/svg" xmlns:xlink="http://www.w3.org/1999/xlink"><linearGradient id="a" x1="90.299479%" x2="90.299479%" y1="100%" y2="0%"><stop offset="0" stop-color="#006efe"/><stop offset="1" stop-color="#00bfff"/></linearGradient><g fill="none" fill-rule="evenodd"><path d="m0 0h156v156h-156z" fill="url(#a)"/><path d="m34.7396518 22.3526848c14.5660179-14.57324479 41.451168-24.72023184 53.0868968-21.872792.3562721.08504155.6311994.36874439.7052559.72776744 2.8011575 12.22490226-7.2790355 38.53389426-21.8907457 53.08526616-2.584281 2.6015161-5.3900859 4.9727423-8.3855926 7.0867844.3854077 4.4739804.0437064 8.9479607-1.6250683 12.779676-4.7262079 10.8111244-17.1526184 13.9588182-22.4787905 14.8138457-.5919447.0999733-1.1964994-.0833553-1.633475-.4953431-.4369757-.4119885-.6559132-1.0050633-.5915578-1.6024565l1.9031977-17.3391591c-1.3004369-.0129426-2.5993804-.0919187-3.8918206-.2366236-.9022925-.0883467-1.7454598-.4892142-2.3839637-1.1334081l-6.7168176-6.7069938c-.6444429-.6384917-1.0450981-1.4827406-1.1323827-2.3861225-.1451183-1.3008822-.2240235-2.6083112-.2364097-3.9172183l-17.34532215 1.9148638c-.59706392.0652655-1.19013558-.1536055-1.60195785-.5911966-.41182226-.4375912-.59468844-1.0432109-.49394352-1.6358516.87610664-5.3409381 4.02095201-17.7567302 14.82229392-22.5150567 3.8282483-1.670286 8.3200332-2.0023547 12.811818-1.6046676 2.1119917-2.990971 4.4804153-5.7920079 7.0783854-8.371314zm-19.6821645 38.1297417c.3742897-.0510272.7391532.1435587.905351.4828347.1661979.3392754.0963258.746884-.1733765 1.011416-.6016229.6017119-1.5682303 3.1629978-1.8951121 4.9901957-.85631 4.8197106 3.3530449 8.9394299 8.1199037 8.1271195 2.1217234-.3670446 3.8844785-.7962654 4.983443-1.8973979.577558-.6037172 1.5983115-.1042966 1.5241114.7340886-.3207317 2.6698328-1.5308107 5.153934-3.4352668 7.0520604-4.7147181 4.7194258-22.2339769 5.1646923-22.2339769 5.1646923s.44520094-17.5118157 5.15991904-22.231241c1.89939402-1.8988281 4.37933306-3.1075622 7.04500416-3.4337683zm43.7462908-39.8442201c-3.8574619 0-7.3349759 2.3261176-8.8105787 5.8934175s-.6586098 7.6730464 2.0699215 10.4022594c1.7868468 1.791024 4.2118659 2.7974261 6.7406572 2.7974261 2.5287912 0 4.9538107-1.0064021 6.7406575-2.7974261 2.7285312-2.729213 3.5455238-6.8349595 2.0699215-10.4022594-1.4756029-3.5672999-4.953117-5.8934175-8.810579-5.8934175z" fill="#fff" fill-rule="nonzero" transform="translate(34 34)"/></g></svg>

<?xml version="1.0" encoding="UTF-8"?>
<svg width="156px" height="156px" viewBox="0 0 156 156" version="1.1" xmlns="http://www.w3.org/2000/svg" xmlns:xlink="http://www.w3.org/1999/xlink">
    <!-- Generator: Sketch 62 (91390) - https://sketch.com -->
    <title>jamstack-webstarter</title>
    <desc>Created with Sketch.</desc>
    <defs>
        <linearGradient x1="90.2994792%" y1="100%" x2="90.2994792%" y2="0%" id="linearGradient-1">
            <stop stop-color="#006EFE" offset="0%"></stop>
            <stop stop-color="#00BFFF" offset="100%"></stop>
        </linearGradient>
    </defs>
    <g id="jamstack-webstarter" stroke="none" stroke-width="1" fill="none" fill-rule="evenodd">
        <rect id="Rectangle" fill="url(#linearGradient-1)" x="0" y="0" width="156" height="156"></rect>
        <g id="icon" transform="translate(34.000000, 34.000000)" fill="#FFFFFF" fill-rule="nonzero">
            <path d="M34.7396518,22.3526848 C49.3056697,7.77944001 76.1908198,-2.36754704 87.8265486,0.479892798 C88.1828207,0.564934346 88.457748,0.848637193 88.5318045,1.20766024 C91.332962,13.4325625 81.252769,39.7415545 66.6410588,54.2929264 C64.0567778,56.8944425 61.2509729,59.2656687 58.2554662,61.3797108 C58.6408739,65.8536912 58.2991726,70.3276715 56.6303979,74.1593868 C51.90419,84.9705112 39.4777795,88.118205 34.1516074,88.9732325 C33.5596627,89.0732058 32.955108,88.8898772 32.5181324,88.4778894 C32.0811567,88.0659009 31.8622192,87.4728261 31.9265746,86.8754329 L33.8297723,69.5362738 C32.5293354,69.5233312 31.2303919,69.4443551 29.9379517,69.2996502 C29.0356592,69.2113035 28.1924919,68.810436 27.553988,68.1662421 L20.8371704,61.4592483 C20.1927275,60.8207566 19.7920723,59.9765077 19.7047877,59.0731258 C19.5596694,57.7722436 19.4807642,56.4648146 19.468378,55.1559075 L2.12305585,57.0707713 C1.52599193,57.1360368 0.932920265,56.9171658 0.521098,56.4795747 C0.10927574,56.0419835 -0.0735904376,55.4363638 0.0271544758,54.8437231 C0.903261118,49.502785 4.04810649,37.0869929 14.8494484,32.3286664 C18.6776967,30.6583804 23.1694816,30.3263117 27.6612664,30.7239988 C29.7732581,27.7330278 32.1416817,24.9319909 34.7396518,22.3526848 Z M15.0574873,60.4824265 C15.431777,60.4313993 15.7966405,60.6259852 15.9628383,60.9652612 C16.1290362,61.3045366 16.0591641,61.7121452 15.7894618,61.9766772 C15.1878389,62.5783891 14.2212315,65.139675 13.8943497,66.9668729 C13.0380397,71.7865835 17.2473946,75.9063028 22.0142534,75.0939924 C24.1359768,74.7269478 25.8987319,74.297727 26.9976964,73.1965945 C27.5752544,72.5928773 28.5960079,73.0922979 28.5218078,73.9306831 C28.2010761,76.6005159 26.9909971,79.0846171 25.086541,80.9827435 C20.3718229,85.7021693 2.8525641,86.1474358 2.8525641,86.1474358 C2.8525641,86.1474358 3.29776504,68.6356201 8.01248314,63.9161948 C9.91187716,62.0173667 12.3918162,60.8086326 15.0574873,60.4824265 L15.0574873,60.4824265 Z M58.8037781,20.6382064 C54.9463162,20.6382064 51.4688022,22.964324 49.9931994,26.5316239 C48.5175966,30.0989238 49.3345896,34.2046703 52.0631209,36.9338833 C53.8499677,38.7249073 56.2749868,39.7313094 58.8037781,39.7313094 C61.3325693,39.7313094 63.7575888,38.7249073 65.5444356,36.9338833 C68.2729668,34.2046703 69.0899594,30.0989238 67.6143571,26.5316239 C66.1387542,22.964324 62.6612401,20.6382064 58.8037781,20.6382064 L58.8037781,20.6382064 Z" id="Shape"></path>
        </g>
    </g>
</svg>
